X: 34153
T: Reel For Angus
R: reel
M: 4/4
K: Amajor
|:A2EA FEEA|EEBE cABc|d2cA BAFA|EFAB cABA|
F3c BAFA|EFAE B2A/B/c|d2cA BAFA|1 EFAB A2EF:|2 EFAB A2z2||
d3B cBAc|BAFA EAFA|d3B cBAc|BAFA B2A/B/c|
d3B cBAc|BAFA EAFA|c2BA BAFA|1 EFAB A2A/B/c:|2 EFAB A4||

